icons/funds-box-line.svg

<svg viewBox="0 0 24 24" fill="currentColor" xmlns="http://www.w3.org/2000/svg">
    <path d="M4.00488 5.00281V19.0028H20.0049V5.00281H4.00488ZM3.00488 3.00281H21.0049C21.5572 3.00281 22.0049 3.45052 22.0049 4.00281V20.0028C22.0049 20.5551 21.5572 21.0028 21.0049 21.0028H3.00488C2.4526 21.0028 2.00488 20.5551 2.00488 20.0028V4.00281C2.00488 3.45052 2.4526 3.00281 3.00488 3.00281ZM14.7978 9.7957L13.0049 8.00281H18.0049V13.0028L16.212 11.2099L12.348 15.0739L10.2267 12.9526L7.39828 15.781L5.98407 14.3668L10.2267 10.1241L12.348 12.2454L14.7978 9.7957Z"/>
</svg>

<svg xmlns="http://www.w3.org/2000/svg" viewBox="0 0 24 24">
    <g>
        <path fill="none" d="M0 0h24v24H0z"/>
        <path d="M4 5v14h16V5H4zM3 3h18a1 1 0 0 1 1 1v16a1 1 0 0 1-1 1H3a1 1 0 0 1-1-1V4a1 1 0 0 1 1-1zm11.793 6.793L13 8h5v5l-1.793-1.793-3.864 3.864-2.121-2.121-2.829 2.828-1.414-1.414 4.243-4.243 2.121 2.122 2.45-2.45z"/>
    </g>
</svg>
